packages/tokens/icons/productBadgingStar/size32Px.svg

<svg viewBox="0 0 32 32" fill="none" xmlns="http://www.w3.org/2000/svg" width="1em" height="1em"><path d="M10.5 27.5H23.8333C24.7538 27.5 25.5 26.7538 25.5 25.8333V18.5" stroke="currentColor" stroke-linecap="round" stroke-linejoin="round"/><path d="M17.5 6.5L6.16667 6.5C5.24619 6.5 4.5 7.24619 4.5 8.16667L4.5 22.8333C4.5 23.7538 5.24619 24.5 6.16667 24.5L20.8333 24.5C21.7538 24.5 22.5 23.7538 22.5 22.8333V18.5" stroke="currentColor" stroke-linecap="round" stroke-linejoin="round"/><path d="M7.5 21.5H16.5M7.5 18.5L19.5 18.5" stroke="currentColor" stroke-linecap="round"/><path d="M18.3726 11.7046L16.8861 10.2694C16.3033 9.70661 16.5966 8.7206 17.3923 8.5679L19.6632 8.13209C19.9822 8.07088 20.2516 7.85858 20.3856 7.56274L21.0891 6.01016C21.444 5.22713 22.556 5.22713 22.9109 6.01016L23.6144 7.56274C23.7484 7.85857 24.0178 8.07088 24.3368 8.13209L26.6077 8.5679C27.4034 8.7206 27.6967 9.70661 27.1139 10.2694L25.6274 11.7046C25.3911 11.9328 25.2819 12.2624 25.3353 12.5866L25.7274 14.966C25.8631 15.79 24.9888 16.4076 24.2576 16.0042L22.4831 15.0251C22.1824 14.8593 21.8176 14.8593 21.5169 15.0251L19.7424 16.0042C19.0112 16.4076 18.1369 15.79 18.2726 14.966L18.6647 12.5866C18.7181 12.2624 18.6089 11.9328 18.3726 11.7046Z" stroke="currentColor"/></svg>

<svg xmlns="http://www.w3.org/2000/svg" fill="none" viewBox="0 0 32 32" width="1em" height="1em"><path stroke="currentColor" stroke-linecap="round" stroke-linejoin="round" d="M10.5 27.5h13.333c.92 0 1.667-.746 1.667-1.667V18.5"/><path stroke="currentColor" stroke-linecap="round" stroke-linejoin="round" d="M17.5 6.5H6.167c-.92 0-1.667.746-1.667 1.667v14.666c0 .92.746 1.667 1.667 1.667h14.666c.92 0 1.667-.746 1.667-1.667V18.5"/><path stroke="currentColor" stroke-linecap="round" d="M7.5 21.5h9m-9-3h12"/><path stroke="currentColor" d="m18.373 11.705-1.487-1.436a1 1 0 0 1 .506-1.701l2.271-.436a1 1 0 0 0 .723-.57l.703-1.552c.355-.783 1.467-.783 1.822 0l.703 1.553a1 1 0 0 0 .723.57l2.27.435a1 1 0 0 1 .507 1.701l-1.487 1.436a1 1 0 0 0-.292.882l.392 2.379a1 1 0 0 1-1.47 1.038l-1.774-.979a1 1 0 0 0-.966 0l-1.775.98a1 1 0 0 1-1.47-1.039l.393-2.38a1 1 0 0 0-.292-.881Z"/></svg>
